X:265
T:Apples in Winter
M:6/8
L:1/8
R:jig
N:Learned from Ari Nieh
Z:Michael Abraham Shulman
K:Edor
d|BEE dEE|BAG FGE|D3 FEF|ABc ded|BEE BAB|def gfe|fdB AGF|GEE E2:|
d|efe edB|g2e fdB|ded dAF|DFA def|efe edB|def g2a|bgb afa|gee e2d|
efe edB|g2e fdB|ded dAF|DFA def|edB def|gba gfe|fdB AGF|GEE E2||
